!!!!SEGMENT: pl-wn--sd-xvi-qu-273--021_gomolka-mikolaj--panie-za-twoja-zawzdy-pomoca-krol-bije.krn
!!!cenid: 15xx:226
!!!COM: Gomółka, Mikołaj
!!!COM-rismid: pe30013343
!!!CDT: ~1535->1591/04/30
!!!CNT: Polish
!!!GTL: Melodiae na psalterz polski
!!!OTL: XXI. Panie, za Twoją zawżdy pomocą król bije
!!!PDT: 1580
!!!AGN: Sacred
!!!SMS-siglum: PL-Wn
!!!SMS-shelfmark: SD XVI.Qu.273
!!!SMS-shelfwork: 021 G
!!!NIFC-rismid:
!!!ONB-nifc: Melodiae na psalterz polski
**kern	**text	**kern	**text	**kern	**text	**kern	**text
*part4	*part4	*part3	*part3	*part2	*part2	*part1	*part1
*staff4	*staff4	*staff3	*staff3	*staff2	*staff2	*staff1	*staff1
*clefF3	*	*clefC3	*	*clefC2	*	*clefG2	*
*k[b-]	*	*k[b-]	*	*k[b-]	*	*k[b-]	*
*b-:	*	*b-:	*	*b-:	*	*b-:	*
*M4/2	*	*M4/2	*	*M4/2	*	*M4/2	*
*met(C|)	*	*met(C|)	*	*met(C|)	*	*met(C|)	*
*xywh-23r:594,5207,4911,1535	*	*xywh-23r:588,3967,4924,1360	*	*xywh-23r:567,2755,4964,1253	*	*xywh-23r:581,1165,4978,1623	*
=1-	=1-	=1-	=1-	=1-	=1-	=1-	=1-
1r	.	1r	.	1r	.	1f/	Pá-
1C/	Pá-	1c\	Pá-	1e\	Pá-	1.cc\	-nie,
=2-	=2-	=2-	=2-	=2-	=2-	=2-	=2-
2F/	-nie	2c/	-nie	2f\	-nie	.	.
2F/	zá	2f\	za	2a\	zá	2cc\	zá
2c\	two-	2e\	two-	2g\	two-	2cc\	two-
2F/	-ią	2f\	-ią	2a\	-ią	2cc\	-ią
=3-	=3-	=3-	=3-	=3-	=3-	=3-	=3-
1G\	záwż-	1d\	záw(ż-	2.g\	záwż-	1b-\	záwż-
.	.	.	.	4f\	.	.	.
2A\	(-dy)	2c/	-dy)	2e/	-dy	2a/	-dy
2D/	po-	2d\	po-	2f\	po-	2a/	po-
=4-	=4-	=4-	=4-	=4-	=4-	=4-	=4-
1B-\	-mo-	1d\	-m(o-	1f\	-mo-	1b-\	-mo-
1F\	-cą	2c/	-cą)	2.f\	(-cą)	1a/	-cą
.	.	1c\	Król	.	.	.	.
.	.	.	.	4e/	.	.	.
=5-	=5-	=5-	=5-	=5-	=5-	=5-	=5-
2G\	Król	.	.	4d/	Król	2g/	król
.	.	.	.	4c/	.	.	.
2G\	bi-	2B-/	bi-	2d/	bi-	2g/	bi-
2C/	-je	2c/	-je	2e/	-je	2g/	-je
2C/	Nie-	2G/	Nie-	2e/	Nie-	2cc\	Nie-
=6-	=6-	=6-	=6-	=6-	=6-	=6-	=6-
2F/	-przi-	2A/	-przi-	2f\	-przi-	2a/	-przi-
2D/	-ja-	2B-/	-ja-	2f\	-ja-	2dd\	-ja-
2E-/X	-ćie-	2B-/	-ćie-	2g\	-ćie-	2b-\	-ćie-
2C/	-lá	2c/	-lá	2g\	-lá	2ee\	-lá
!!LO:PB:g=original
*xywh-23v:1329,5342,4993,1238	*	*xywh-23v:1302,4077,4980,1251	*	*xywh-23v:1288,2743,5028,1306	*	*xywh-23v:1288,1142,5062,1628	*
=7-	=7-	=7-	=7-	=7-	=7-	=7-	=7-
1G\	ſwe-	1d\	ſwe-	1g\	ſwe-	1dd\	ſwe-
2C/	-go:	2e\	-go:	2g\	-go:	2.cc\	-go:
2C/	prze-	2c/	prze-	2g\	prze-	.	.
.	.	.	.	.	.	4b-/	.
=8-	=8-	=8-	=8-	=8-	=8-	=8-	=8-
2D/	-to	2F/	-to	2f\	-to	2a/	prze-
2E/	też	2G/	też	4e/	.	4g/	-to
.	.	.	.	4d/	.	4a/	.
2F\	u-	2A/	u-	2c/	też	4g/	też
.	.	.	.	.	.	4f/	u-
2BB-/	-	4B-/	.	2d/	u-	1f/	-żi-
.	.	4A/	.	.	.	.	.
=9-	=9-	=9-	=9-	=9-	=9-	=9-	=9-
1C/	-żi-	4G/	.	2.c/	-żi-	.	.
.	.	4F/	.	.	.	.	.
.	.	2G/	-żi-	.	.	2e/	.
.	.	.	.	4B-/	.	.	.
1F\	-je	1F/	-je	1A/	-je	1f/	-je
=10-	=10-	=10-	=10-	=10-	=10-	=10-	=10-
1F\	Nie-	1c\	Nie-	1f\	Nie-	1a/	Nie-
2B-\	-śmier-	2.d\	-śmier-	2.f\	-śmier-	2.b-/	-śmier-
2F/	-tél-	.	.	.	.	.	.
.	.	4c\	-tél-	4e/	-tél-	4a/	-tél-
=11-	=11-	=11-	=11-	=11-	=11--	=11-	=11-
2G\	-néy	2Bn/	-néy	2d/	-néy	2g/	(-néy)
2A\	rá-	1c\	rá-	2c/	rá-	2f/	rá-
1G\	-doś-	.	.	1d/	-doś-	1g/	-doś-
.	.	2Bn/	-doś-	.	.	.	.
=12-	=12-	=12--	=12-	=12-	=12-	=12--	=12-
2C/	-ći:	2c/	-ći:	2e/	-ci:	2g/	-ći:
2c\	bo	2e\	bo	2g\	bo	2cc\	bo
2c\	iá-	2e\	iá-	2g\	iá-	2cc\	iá-
2A\	-ka	2f\	-ka	2a\	-ka	2cc\	-ka
!!LO:PB:g=original
*xywh-24r:534,5234,4951,1327	*	*xywh-24r:561,3954,5005,1232	*	*xywh-24r:594,2566,4944,1407	*	*xywh-24r:621,1118,4924,1509	*
=13-	=13-	=13-	=13-	=13-	=13-	=13-	=13-
2B-\	być	2f\	być	2g\	być	2dd\	być
2c\	mo-	2e\	mo-	2g\	mo-	4cc\	mo-
.	.	.	.	.	.	4b-/	.
2F/	-że	2f\	-że	2a\	-że	2a/	-że
2D/	Więt-	2f\	Więt-	2a\	Więt-	2dd\	Więt-
=14-	=14-	=14-	=14-	=14-	=14-	=14-	=14-
2D/	-sza	2.d\	(-sza)	2a\	-sza	2ff\	(-sza)
2BB-/	u-	.	.	2b-\	u-	2ff\	u-
.	.	4e\	u-	.	.	.	.
1D/	-ćie-	1f\	-ćie-	2.a\	-ćie-	1dd\	-ćie-
.	.	.	.	4b-\	.	.	.
=15-	=15-	=15-	=15	=15--	=15-	=15-	=15-
1C/	-chá,	4g\	-chá,	2.cc\	.	2ee\	-chá,
.	.	4f\	ie-	.	.	.	.
.	.	4e\	-dno	.	.	2g/	ie-
.	.	4d\	.	4b-\	-chá,	.	.
1C/	ie-	2.e\	.	2a\	.	2.cc\	-dno
.	.	.	.	2g\	ie-	.	.
.	.	4d\	łá-	.	.	4b-/	łá-
=16-	=16-	=16-	=16-	=16-	=16-	=16-	=16-
2.F/	-dno	4c/	-ſká	2f\	-dno	2.a/	-ſká
.	.	4B-/	.	.	.	.	.
.	.	2A/	Twa,	2c/	.	.	.
4E/	łá-	.	.	.	.	4g/	twa,
2D/	-ſká	2.d\	móy	2.f\	łá-	2f/	.
!	!	!	!	!	!	!LO:SIC:v:t=w źródle rozciągnięte słowo	!
2BB-/	twa,	.	.	.	.	4b-/	m-
.	.	4c/	.	4e/	-ſká	4a/	-ó-
=17-	=17-	=17-	=17-	=17-	=17-	=17-	=17-
1D/	móy	4B-/	.	4d/	Twa,	4g/	.
.	.	4A/	.	4c/	.	4f/	-y
.	.	4G/	.	2d/	.	4a/	.
.	.	4F/	.	.	.	4b-/	.
1C/	Bo-	1G/	Bo-	4e/	.	2.cc\	Bo-
.	.	.	.	2f\	móy	.	.
.	.	.	.	4e/	Bo-	4b-/	.
=18-	=18-	=18-	=18-	=18-	=18-	=18-	=18-
!	!	!LO:N:vis=00	!	!LO:TX:a:t=P:problem:w trzech głosach w pionie kaudy w z drugiejstrony	!	!	!
0F\ll	-że.	0F;/l	-że.	0f\ll	-że?	0a/ll	-że?
==-	==-	==-	==-	==-	==-	==-	==-
*-	*-	*-	*-	*-	*-	*-	*-
!!!RDF**kern: l = terminal long
!!!system-decoration: s1,s2,s3,s4
!!!ENC: Leszek Kubiak
!!!END: data 2020=02-05
!!!URL-scan: https://polona.pl/item/melodiae-na-psalterz-polski,Nzk3MTM4ODQ/62 Scan on Polona
!!!IIIF: https://polona.pl/iiif/item/Nzk3MTM4ODQ/manifest.json
